src/components/atoms/Icon/icons/facebook-large.svg

<?xml version="1.0" encoding="UTF-8"?>
<svg width="36px" height="36px" viewBox="0 0 36 36" version="1.1" xmlns="http://www.w3.org/2000/svg" xmlns:xlink="http://www.w3.org/1999/xlink">
    <!-- Generator: Sketch 53.2 (72643) - https://sketchapp.com -->
    <title>facebook</title>
    <desc>Created with Sketch.</desc>
    <defs>
        <rect id="path-1" x="0" y="0" width="24" height="24"></rect>
    </defs>
    <g id="facebook" stroke="none" stroke-width="1" fill="none" fill-rule="evenodd">
        <g id="facebook-copy" transform="translate(6.000000, 6.000000)">
            <mask id="mask-2" fill="white">
                <use xlink:href="#path-1"></use>
            </mask>
            <g id="Mask" fill-rule="nonzero"></g>
            <path d="M22.6666667,0 L1.33333333,0 C0.596953667,-4.50902501e-17 9.01805001e-17,0.596953667 0,1.33333333 L0,22.6666667 C9.01805001e-17,23.4030463 0.596953667,24 1.33333333,24 L12.82,24 L12.82,14.72 L9.70333333,14.72 L9.70333333,11.0866667 L12.82,11.0866667 L12.82,8.42 C12.82,5.32 14.7133333,3.63333333 17.4866667,3.63333333 C18.4196836,3.63060665 19.3521625,3.67845461 20.28,3.77666667 L20.28,7 L18.36,7 C16.86,7 16.57,7.71333333 16.57,8.76333333 L16.57,11.0766667 L20.1666667,11.0766667 L19.7,14.71 L16.57,14.71 L16.57,24 L22.6666667,24 C23.4030463,24 24,23.4030463 24,22.6666667 L24,1.33333333 C24,0.596953667 23.4030463,4.50902501e-17 22.6666667,0 Z" id="Path" fill="currentColor" fill-rule="nonzero" mask="url(#mask-2)"></path>
        </g>
    </g>
</svg>

<svg width="36" height="36" xmlns="http://www.w3.org/2000/svg" xmlns:xlink="http://www.w3.org/1999/xlink"><defs><path id="facebook-large-a" d="M0 0h24v24H0z"/></defs><g transform="translate(6 6)" fill="none" fill-rule="evenodd"><mask id="facebook-large-b" fill="#fff"><use xlink:href="#facebook-large-a"/></mask><path d="M22.667 0H1.333C.597 0 0 .597 0 1.333v21.334C0 23.403.597 24 1.333 24H12.82v-9.28H9.703v-3.633h3.117V8.42c0-3.1 1.893-4.787 4.667-4.787a25.82 25.82 0 0 1 2.793.144V7h-1.92c-1.5 0-1.79.713-1.79 1.763v2.314h3.597L19.7 14.71h-3.13V24h6.097c.736 0 1.333-.597 1.333-1.333V1.333C24 .597 23.403 0 22.667 0z" fill="currentColor" fill-rule="nonzero" mask="url(#facebook-large-b)"/></g></svg>
